assets/icons/24px/outline/battery-vertical-charging-24px.svg

<svg fill="none" height="24" viewBox="0 0 24 24" width="24" xmlns="http://www.w3.org/2000/svg"><g stroke="#fff" stroke-linecap="round" stroke-linejoin="round" stroke-width="2"><path d="m11 21c-1.88562 0-2.82843 0-3.41421-.5858-.58579-.5858-.58579-1.5286-.58579-3.4142v-8c0-1.88562 0-2.82843.58579-3.41421.58578-.58579 1.52859-.58579 3.41421-.58579h2c1.8856 0 2.8284 0 3.4142.58579.5858.58578.5858 1.52859.5858 3.41421v8c0 1.8856 0 2.8284-.5858 3.4142s-1.5286.5858-3.4142.5858z"/><path d="m12.5 5h-1c-.5523 0-1-.44772-1-1s.4477-1 1-1h1c.5523 0 1 .44772 1 1s-.4477 1-1 1z" fill="#fff"/><path d="m11.5 17 1.75-3.9461-2.5-.0538 2-4.0539"/></g></svg>

<svg width="24" height="24" viewBox="0 0 24 24" fill="none" xmlns="http://www.w3.org/2000/svg">
<path d="M11 21C9.11438 21 8.17157 21 7.58579 20.4142C7 19.8284 7 18.8856 7 17L7 9C7 7.11438 7 6.17157 7.58579 5.58579C8.17157 5 9.11438 5 11 5H13C14.8856 5 15.8284 5 16.4142 5.58579C17 6.17157 17 7.11438 17 9V17C17 18.8856 17 19.8284 16.4142 20.4142C15.8284 21 14.8856 21 13 21H11Z" stroke="white" stroke-width="2" stroke-linecap="round" stroke-linejoin="round"/>
<path d="M12.5 5H11.5C10.9477 5 10.5 4.55228 10.5 4C10.5 3.44772 10.9477 3 11.5 3H12.5C13.0523 3 13.5 3.44772 13.5 4C13.5 4.55228 13.0523 5 12.5 5Z" fill="white" stroke="white" stroke-width="2" stroke-linecap="round" stroke-linejoin="round"/>
<path d="M11.5 17L13.25 13.0539L10.75 13.0001L12.75 8.9462" stroke="white" stroke-width="2" stroke-linecap="round" stroke-linejoin="round"/>
</svg>
